X: 0
T:Cefan Mapli
Z:crm
M:3/4
L:1/4
Q:1/2=100
K:D
G|dcB|GFG|ddB/c/|d2A/G/|def|fga|fdg/f/|e2||
A|AAF/G/|AAA|Bed|d-cA|Bcd|eag|fdc/e/|d2||
